packages/ffe-icons/icons/filled/sm/video_chat.svg

<svg xmlns="http://www.w3.org/2000/svg" height="20" viewBox="0 -960 960 960" width="20"><path d="M318.154-394.001h227.692q18.861 0 31.507-12.646t12.646-31.507v-89.077l81 73q4.616 3.615 9.039 1.516 4.423-2.1 4.423-7.747v-183.076q0-5.647-4.423-7.747-4.423-2.099-9.039 1.516l-81 73v-89.077q0-18.861-12.646-31.507t-31.507-12.646H318.154q-18.861 0-31.507 12.646t-12.646 31.507v227.692q0 18.861 12.646 31.507t31.507 12.646Zm-76.615 134-70.959 70.958q-15.194 15.194-34.886 6.942-19.693-8.252-19.693-29.747v-567.843q0-27.008 18.65-45.658 18.65-18.65 45.658-18.65h599.382q27.008 0 45.658 18.65 18.65 18.65 18.65 45.658v455.382q0 27.008-18.65 45.658-18.65 18.65-45.658 18.65H241.539Z"/></svg>

<svg xmlns="http://www.w3.org/2000/svg" height="20" viewBox="0 -960 960 960" width="20"><path d="M318.15-394h227.7q18.86 0 31.5-12.65Q590-419.29 590-438.15v-89.08l81 73q4.61 3.61 9.04 1.51 4.42-2.09 4.42-7.74v-183.08q0-5.65-4.42-7.74-4.43-2.1-9.04 1.51l-81 73v-89.08q0-18.86-12.65-31.5Q564.71-710 545.85-710h-227.7q-18.86 0-31.5 12.65Q274-684.71 274-665.85v227.7q0 18.86 12.65 31.5Q299.29-394 318.15-394Zm-76.61 134-70.96 70.96q-15.19 15.19-34.89 6.94Q116-190.35 116-211.85v-567.84q0-27.01 18.65-45.66Q153.3-844 180.31-844h599.38q27.01 0 45.66 18.65Q844-806.7 844-779.69v455.38q0 27.01-18.65 45.66Q806.7-260 779.69-260H241.54Z"/></svg>
